build/images/icons/people.svg

<svg width="36" height="42" viewBox="0 0 36 42" fill="none" xmlns="http://www.w3.org/2000/svg">
<path d="M0 31.6307C0.119164 31.5371 0.244174 31.4511 0.374269 31.3734C0.795322 31.1395 1.21637 30.9056 1.64912 30.6834L4.23392 29.4319L6.08187 28.5664L7.94152 27.7243L9.74269 26.9524L10.5263 26.5898C10.7053 26.5076 10.8991 26.4628 11.0959 26.458C11.2928 26.4532 11.4886 26.4885 11.6713 26.5619C11.8541 26.6352 12.02 26.7449 12.1589 26.8845C12.2979 27.024 12.407 27.1904 12.4795 27.3734C12.7719 28.0518 13.0526 28.7418 13.345 29.4202L13.9883 30.8939C14.1871 31.3617 14.386 31.8179 14.5965 32.274C14.807 32.7301 15.0877 33.3617 15.345 33.9114C15.6023 34.4611 15.8947 35.0225 16.1754 35.5839C16.1939 35.6367 16.2174 35.6877 16.2456 35.736C16.2456 35.736 16.3041 35.8179 16.3275 35.8062C16.3509 35.7945 16.386 35.7477 16.4094 35.7126C16.4157 35.6739 16.4157 35.6344 16.4094 35.5956L16.5146 33.198C16.5146 32.5547 16.5848 31.9114 16.6082 31.2681C16.6082 30.9991 16.6082 30.7418 16.6082 30.4845C16.6259 30.3918 16.6259 30.2965 16.6082 30.2038C16.4327 29.8062 16.2456 29.4202 16.0585 29.0342C15.8713 28.6483 15.5673 27.9816 15.3099 27.4553C15.0526 26.929 14.9591 26.7535 14.7953 26.4026C14.7238 26.2543 14.6726 26.0969 14.6433 25.9348C14.6202 25.7348 14.6775 25.5338 14.8025 25.3759C14.9274 25.218 15.11 25.1162 15.3099 25.0927H20.3977C20.6023 25.0748 20.808 25.1111 20.9942 25.198C21.1485 25.2756 21.2712 25.4041 21.3415 25.5619C21.4119 25.7196 21.4255 25.8968 21.3801 26.0635C21.3535 26.1767 21.3143 26.2865 21.2632 26.391L20.0936 28.7301L19.4269 30.1336C19.3546 30.2743 19.3223 30.432 19.3333 30.5898C19.3333 31.2798 19.4035 31.9582 19.4269 32.6483C19.4854 33.6424 19.5322 34.6366 19.5789 35.6424C19.5735 35.693 19.5735 35.7439 19.5789 35.7945C19.5789 35.7945 19.6608 35.8646 19.7076 35.7945C20.0351 35.1278 20.3626 34.4728 20.6667 33.8062C20.9708 33.1395 21.3801 32.2506 21.7193 31.467C22.0585 30.6834 22.4678 29.7594 22.8889 28.9056C23.0994 28.426 23.2982 27.9465 23.4971 27.4553C23.6358 27.0976 23.9085 26.8081 24.2573 26.6483C24.4408 26.5642 24.6403 26.5206 24.8421 26.5206C25.0439 26.5206 25.2434 26.5642 25.4269 26.6483C26.0585 26.9056 26.6784 27.1863 27.3099 27.467L28.7251 28.0986L30.5731 28.9524L32.4678 29.8412L34.4561 30.812C34.9193 31.034 35.3684 31.284 35.8012 31.5605L36 31.7126C35.972 31.7824 35.9367 31.849 35.8947 31.9114L35.4269 32.543C34.5855 33.665 33.6334 34.6994 32.5848 35.6307C32.1238 36.0524 31.6354 36.4431 31.1228 36.8003C30.7602 37.0576 30.4094 37.3266 30.0351 37.5722C29.6608 37.8179 29.5088 37.9114 29.2398 38.0635C28.9708 38.2155 28.6199 38.4377 28.2924 38.6132L27.2515 39.1161C27.1303 39.1855 27.0054 39.2479 26.8772 39.3032C26.6901 39.3968 26.5029 39.467 26.3158 39.5488L25.4269 39.888C25.2012 39.9782 24.9709 40.0563 24.7368 40.1219L23.9649 40.3559L23.3567 40.5079H23.2281H23.1228L22.3275 40.66L21.3099 40.8471H21.1579L20.5029 40.929L19.883 40.9874C19.6474 40.9967 19.4128 41.0241 19.1813 41.0693C18.9404 41.0982 18.697 41.0982 18.4561 41.0693H17.8947C17.5035 41.0841 17.1118 41.0606 16.7251 40.9991C16.4444 40.9407 16.152 40.9991 15.8596 40.9173H15.4503H15.076L14.5731 40.8354H14.4795C14.1287 40.7769 13.7895 40.7418 13.4503 40.66C13.2136 40.6178 12.9794 40.5632 12.7485 40.4962C12.5627 40.4278 12.3708 40.3769 12.1754 40.3442L11.7895 40.2272L11.1813 40.0401L10.6316 39.8179L10.3158 39.6892C10.0117 39.5722 9.69591 39.467 9.39181 39.3383L8.2924 38.812C7.96491 38.6483 7.62573 38.4845 7.30994 38.2974C6.99415 38.1103 6.72515 37.9465 6.44444 37.7711L5.7076 37.2915C5.40351 37.0927 5.09942 36.8822 4.80702 36.66C4.51462 36.4377 3.89474 35.9348 3.46199 35.5488C3.02924 35.1629 2.49123 34.6132 2.0117 34.1219C1.55154 33.6507 1.12182 33.1507 0.725146 32.6249L0.0935672 31.7945C0.0584795 31.7711 0 31.7009 0 31.6307Z" fill="#10182E"/>
<path d="M18.105 0.0517868C18.6996 0.0489203 19.2937 0.0880037 19.8828 0.168746C20.4273 0.23177 20.9641 0.349319 21.4851 0.519623C21.8829 0.632461 22.2735 0.769161 22.6547 0.92898C23.4331 1.28949 24.1418 1.78439 24.7483 2.39097C25.5754 3.2376 26.1748 4.27966 26.491 5.42021C26.695 6.1101 26.7664 6.83238 26.7015 7.54886C26.6196 8.15705 26.5378 8.71845 26.4442 9.37342C26.3506 10.0284 26.3039 10.2857 26.2337 10.7418C26.2199 10.8442 26.2003 10.9457 26.1752 11.0459C26.1587 11.0919 26.1578 11.1419 26.1726 11.1885C26.1874 11.235 26.2171 11.2753 26.2571 11.3032C26.444 11.462 26.5972 11.6566 26.7077 11.8756C26.8182 12.0945 26.8837 12.3334 26.9004 12.5781C26.9528 12.9153 26.9528 13.2585 26.9004 13.5956C26.8602 13.9702 26.7778 14.339 26.6547 14.6951C26.5897 14.9206 26.4765 15.1294 26.3231 15.3071C26.1696 15.4848 25.9795 15.6271 25.7659 15.7243C25.602 15.8039 25.4454 15.8979 25.298 16.005C25.073 16.2066 24.9347 16.4874 24.912 16.7886C24.8213 17.2359 24.6801 17.6715 24.491 18.0869C24.0094 19.0968 23.3199 19.9936 22.4676 20.7185C21.923 21.1938 21.3123 21.5878 20.6547 21.888C20.08 22.1551 19.4692 22.3363 18.8419 22.4261C18.4742 22.4808 18.1021 22.5004 17.7308 22.4845C17.0386 22.4495 16.3561 22.3074 15.7074 22.0635C14.4162 21.5345 13.2839 20.6803 12.4208 19.584C11.9504 19.023 11.5787 18.3863 11.3214 17.7009C11.1997 17.4022 11.1057 17.0929 11.0407 16.7769C11.0072 16.6567 10.9642 16.5394 10.912 16.4261C10.8712 16.3047 10.8068 16.1926 10.7225 16.0963C10.6382 15.9999 10.5357 15.9212 10.4208 15.8647L10.1752 15.7243C9.98131 15.6367 9.80812 15.5091 9.66702 15.3499C9.52592 15.1906 9.4201 15.0034 9.35649 14.8003C9.10598 14.1282 8.99843 13.4111 9.0407 12.6951C9.0449 12.2727 9.18426 11.8628 9.43836 11.5255C9.51447 11.4417 9.59655 11.3635 9.68398 11.2916C9.72329 11.2623 9.75388 11.2229 9.77243 11.1776C9.79098 11.1322 9.79679 11.0827 9.78924 11.0342C9.64889 10.5781 9.56702 10.0401 9.48515 9.52547C9.40328 9.01085 9.27462 8.23892 9.20445 7.50208C9.14628 7.07912 9.14628 6.65019 9.20445 6.22723C9.29081 5.71326 9.43601 5.21093 9.63719 4.73015C9.97055 3.85326 10.4846 3.05629 11.146 2.39097C11.7219 1.82231 12.3903 1.35563 13.1226 1.01085C13.7629 0.703253 14.4385 0.475428 15.1343 0.332489C16.1104 0.124637 17.1073 0.0304429 18.105 0.0517868Z" fill="#10182E"/>
</svg>

<svg width="36" height="42" fill="none" xmlns="http://www.w3.org/2000/svg"><path d="M0 31.63c.12-.093.244-.179.374-.257.421-.233.842-.467 1.275-.69l2.585-1.251 1.848-.866 1.86-.842 1.8-.772.784-.362a1.45 1.45 0 011.954.783c.292.679.573 1.369.865 2.047l.643 1.474c.2.468.398.924.609 1.38.21.456.49 1.088.748 1.637.257.55.55 1.111.83 1.673a.877.877 0 00.07.152s.06.082.082.07a.334.334 0 00.082-.093.365.365 0 000-.117l.106-2.398c0-.643.07-1.287.093-1.93v-.784a.749.749 0 000-.28 33.028 33.028 0 00-.55-1.17c-.187-.386-.49-1.052-.748-1.579-.257-.526-.35-.701-.515-1.052a1.825 1.825 0 01-.152-.468.76.76 0 01.667-.842h5.088c.204-.018.41.018.596.105a.748.748 0 01.386.866 1.555 1.555 0 01-.117.327l-1.17 2.34-.666 1.403a.866.866 0 00-.094.456c0 .69.07 1.368.094 2.058.058.994.105 1.989.152 2.994a.716.716 0 000 .152s.082.07.129 0c.327-.666.655-1.321.959-1.988.304-.666.713-1.555 1.052-2.339.34-.784.749-1.708 1.17-2.561.21-.48.41-.96.608-1.45.139-.358.412-.648.76-.808a1.404 1.404 0 011.17 0c.631.258 1.251.538 1.883.819l1.415.632 1.848.853 1.895.89 1.988.97c.463.222.912.472 1.345.748l.199.153c-.028.07-.063.136-.105.198l-.468.632a20.9 20.9 0 01-2.842 3.088c-.461.421-.95.812-1.462 1.17-.363.257-.714.526-1.088.771-.374.246-.526.34-.795.491-.27.152-.62.375-.948.55l-1.04.503a3.71 3.71 0 01-.375.187c-.187.094-.374.164-.561.246l-.89.339c-.225.09-.455.168-.69.234l-.771.234-.608.152h-.234l-.796.152-1.017.187h-.152l-.655.082-.62.058a4.61 4.61 0 00-.702.082c-.24.03-.484.03-.725 0h-.561a6.002 6.002 0 01-1.17-.07c-.28-.058-.573 0-.865-.082h-.784l-.503-.082h-.094c-.35-.058-.69-.093-1.029-.175a6.802 6.802 0 01-.701-.164 3.177 3.177 0 00-.574-.152l-.386-.117-.608-.187-.55-.222-.315-.129c-.304-.117-.62-.222-.924-.35l-1.1-.527c-.327-.164-.666-.328-.982-.515-.316-.187-.585-.35-.866-.526l-.736-.48a15.2 15.2 0 01-.901-.631 27.34 27.34 0 01-1.345-1.111c-.433-.386-.97-.936-1.45-1.427a15.55 15.55 0 01-1.287-1.497l-.631-.83C.058 31.77 0 31.7 0 31.63zM18.105.052c.595-.003 1.189.036 1.778.117a8.21 8.21 0 011.602.35c.398.113.788.25 1.17.41.778.36 1.487.855 2.093 1.462a7.018 7.018 0 011.743 3.03c.204.69.275 1.411.21 2.128-.081.608-.163 1.17-.257 1.824-.093.655-.14.913-.21 1.369a2.779 2.779 0 01-.059.304.222.222 0 00.082.257 1.837 1.837 0 01.643 1.275c.053.337.053.68 0 1.018-.04.374-.122.743-.245 1.1a1.626 1.626 0 01-.89 1.028 3.1 3.1 0 00-.467.281 1.17 1.17 0 00-.386.784c-.09.447-.232.883-.421 1.298a7.943 7.943 0 01-2.023 2.631 7.484 7.484 0 01-1.813 1.17 6.48 6.48 0 01-1.813.538 5.85 5.85 0 01-1.111.059 6.713 6.713 0 01-2.024-.421 8.083 8.083 0 01-3.286-2.48 6.47 6.47 0 01-1.1-1.883 5.255 5.255 0 01-.28-.924 2.339 2.339 0 00-.129-.35.97.97 0 00-.491-.562l-.246-.14a1.51 1.51 0 01-.819-.925 5.158 5.158 0 01-.315-2.105c.004-.422.143-.832.397-1.17.076-.083.159-.162.246-.233a.27.27 0 00.105-.258c-.14-.456-.222-.994-.304-1.509-.082-.514-.21-1.286-.28-2.023a4.678 4.678 0 010-1.275 6.795 6.795 0 01.432-1.497 6.69 6.69 0 011.509-2.339 7.145 7.145 0 011.977-1.38 8.679 8.679 0 012.011-.679 12.935 12.935 0 012.971-.28z" fill="#10182E"/></svg>
